packages/icons/raw/imported/TimeCalendar.svg

<svg width="32" height="32" viewBox="0 0 32 32" fill="none" xmlns="http://www.w3.org/2000/svg">
<path d="M6.5 10.8846H7H6.5ZM6.5 22.5769H6H6.5ZM22.5769 25.5V25V25.5ZM9.42308 25.5V26V25.5ZM25.5 10.8846H25H25.5ZM25.5 22.5769H26H25.5ZM22.5769 7.96157L22.5769 8.46157L22.5769 7.96157ZM9.42308 7.96154L9.42308 7.46154L9.42308 7.96154ZM25.5 13.5769C25.7761 13.5769 26 13.3531 26 13.0769C26 12.8008 25.7761 12.5769 25.5 12.5769V13.5769ZM6.5 12.5769C6.22386 12.5769 6 12.8008 6 13.0769C6 13.3531 6.22386 13.5769 6.5 13.5769V12.5769ZM11.1154 9.42308C11.1154 9.69922 11.3392 9.92308 11.6154 9.92308C11.8915 9.92308 12.1154 9.69922 12.1154 9.42308H11.1154ZM12.1154 6.5C12.1154 6.22386 11.8915 6 11.6154 6C11.3392 6 11.1154 6.22386 11.1154 6.5H12.1154ZM19.8846 9.42308C19.8846 9.69922 20.1085 9.92308 20.3846 9.92308C20.6608 9.92308 20.8846 9.69922 20.8846 9.42308L19.8846 9.42308ZM20.8846 6.5C20.8846 6.22386 20.6608 6 20.3846 6C20.1085 6 19.8846 6.22386 19.8846 6.5L20.8846 6.5ZM6 10.8846L6 22.5769H7L7 10.8846H6ZM22.5769 25L9.42308 25V26L22.5769 26V25ZM25 10.8846V22.5769H26V10.8846H25ZM22.5769 7.46157L9.42308 7.46154L9.42308 8.46154L22.5769 8.46157L22.5769 7.46157ZM26 10.8846C26 8.99414 24.4674 7.46157 22.5769 7.46157L22.5769 8.46157C23.9152 8.46157 25 9.54642 25 10.8846H26ZM7 10.8846C7 9.54639 8.08485 8.46154 9.42308 8.46154L9.42308 7.46154C7.53257 7.46154 6 8.9941 6 10.8846H7ZM6 22.5769C6 24.4674 7.53256 26 9.42308 26V25C8.08485 25 7 23.9152 7 22.5769H6ZM22.5769 26C24.4674 26 26 24.4674 26 22.5769H25C25 23.9151 23.9151 25 22.5769 25V26ZM25.5 12.5769H6.5V13.5769H25.5V12.5769ZM12.1154 9.42308V6.5H11.1154V9.42308H12.1154ZM20.8846 9.42308L20.8846 6.5L19.8846 6.5L19.8846 9.42308L20.8846 9.42308Z" fill="black"/>
</svg>

<svg width="32" height="32" fill="none" xmlns="http://www.w3.org/2000/svg"><path d="M6.5 10.885H7h-.5Zm0 11.692H6h.5ZM22.577 25.5V25v.5Zm-13.154 0v.5-.5ZM25.5 10.885H25h.5Zm0 11.692h.5-.5ZM22.577 7.962v.5-.5Zm-13.154 0v-.5.5ZM25.5 13.577a.5.5 0 1 0 0-1v1Zm-19-1a.5.5 0 0 0 0 1v-1Zm4.615-3.154a.5.5 0 1 0 1 0h-1Zm1-2.923a.5.5 0 0 0-1 0h1Zm7.77 2.923a.5.5 0 0 0 1 0h-1Zm1-2.923a.5.5 0 1 0-1 0h1ZM6 10.885v11.692h1V10.885H6ZM22.577 25H9.423v1h13.154v-1ZM25 10.885v11.692h1V10.885h-1Zm-2.423-3.423H9.423v1h13.154v-1ZM26 10.885a3.423 3.423 0 0 0-3.423-3.423v1A2.423 2.423 0 0 1 25 10.885h1Zm-19 0a2.423 2.423 0 0 1 2.423-2.423v-1A3.423 3.423 0 0 0 6 10.885h1ZM6 22.577A3.423 3.423 0 0 0 9.423 26v-1A2.423 2.423 0 0 1 7 22.577H6ZM22.577 26A3.423 3.423 0 0 0 26 22.577h-1A2.423 2.423 0 0 1 22.577 25v1ZM25.5 12.577h-19v1h19v-1ZM12.115 9.423V6.5h-1v2.923h1Zm8.77 0V6.5h-1v2.923h1Z" fill="#000"/></svg>
